X: 109
T: No_68_Healing_Song_from_the_Spirit_Women_(b).krn
N: Derived from No_68_Healing_Song_from_the_Spirit_Women_(b).krn
%%abc-version 2.0
%%abcx-abcm2ps-target-version 5.9.1 (29 Sep 2008)
%%abc-creator hum2abc beta
%%abcx-conversion-date 2019/03/15 08:35:45
%%humdrum-veritas 2938949545
%%humdrum-veritas-data 1577758536
%%linebreak <none>
%%barnumbers 0
L: 1/8
M: 3/4
K: C clef=bass
[K:clef=bass][M:3/4]z4z B, ]|:  
B,4B,/ z/ A,/A,/ ||  
[M:2/4]B,B, A,A, ||  
[M:3/4]A,E,-E,2E,/ z/ E, | 
A,4A,/ z/ A,/^F,/ ||  
[M:2/4]B,B, A,A, ||  
[M:3/4]A,E,E,2-E,/ z/ E,/A,,/ ||  
[M:2/4]A,,2z B, :|]  
A,,2z2 |]  



